gtk-icons/Papirus-GTK/16x16/mimetypes/application-vnd.kde.bluedevil-sendfile.svg

<?xml version="1.0" encoding="UTF-8"?>
<svg xmlns="http://www.w3.org/2000/svg" xmlns:xlink="http://www.w3.org/1999/xlink" width="16px" height="16px" viewBox="0 0 16 16" version="1.1">
<g id="surface1">
<path style=" stroke:none;fill-rule:nonzero;fill:rgb(19.607843%,25.098039%,56.470588%);fill-opacity:1;" d="M 13 9.5 L 13 6.5 C 13 3.460938 10.761719 1 8 1 C 5.238281 1 3 3.460938 3 6.5 L 3 9.5 C 3 12.539062 5.238281 15 8 15 C 10.761719 15 13 12.539062 13 9.5 Z M 13 9.5 "/>
<path style=" stroke:none;fill-rule:nonzero;fill:rgb(100%,100%,100%);fill-opacity:0.101961;" d="M 8 1 C 5.230469 1 3 3.453125 3 6.5 L 3 7 C 3 3.953125 5.230469 1.5 8 1.5 C 10.769531 1.5 13 3.953125 13 7 L 13 6.5 C 13 3.453125 10.769531 1 8 1 Z M 8 1 "/>
<path style="fill:none;stroke-width:2;stroke-linecap:square;stroke-linejoin:miter;stroke:rgb(100%,100%,100%);stroke-opacity:1;stroke-miterlimit:4;" d="M 22 23 L 40 41 L 31 49.5 L 31 14.5 L 40 23 L 22 39 " transform="matrix(0.25,0,0,0.25,0,0)"/>
<path style=" stroke:none;fill-rule:nonzero;fill:rgb(0%,0%,0%);fill-opacity:0.301961;" d="M 3 9 L 3 9.5 C 3 12.546875 5.230469 15 8 15 C 10.769531 15 13 12.546875 13 9.5 L 13 9 C 13 12.046875 10.769531 14.5 8 14.5 C 5.230469 14.5 3 12.046875 3 9 Z M 3 9 "/>
</g>
</svg>

<?xml version="1.0" encoding="UTF-8" standalone="no"?>
<svg xmlns="http://www.w3.org/2000/svg" height="16px" width="16px" version="1.1" xmlns:xlink="http://www.w3.org/1999/xlink" viewBox="0 0 16 16">
 <g id="surface1">
  <path fill="#313f8f" d="m13 9.5v-3c0-3.0391-2.238-5.5-5-5.5-2.7617 0-5 2.4609-5 5.5v3c0 3.039 2.2383 5.5 5 5.5 2.762 0 5-2.461 5-5.5z"/>
  <path fill="#fff" d="m8 1c-2.7695 0-5 2.4531-5 5.5v0.5c0-3.0469 2.2305-5.5 5-5.5 2.77 0 5 2.4531 5 5.5v-0.5c0-3.0469-2.23-5.5-5-5.5z" fill-opacity=".10196"/>
  <path d="m22 23l18 18-9 8.5v-35l9 8.5-18 16" transform="scale(.25)" stroke="#fff" stroke-linecap="square" stroke-width="2" fill="none"/>
  <path d="m3 9v0.5c0 3.047 2.2305 5.5 5 5.5 2.77 0 5-2.453 5-5.5v-0.5c0 3.047-2.23 5.5-5 5.5-2.7695 0-5-2.453-5-5.5z" fill-opacity=".30196"/>
 </g>
</svg>
